X:42
T:Sweeney's
Z: id:dc-polka-36
M:2/4
L:1/8
K:D Major
f/g/f/e/ d/c/d/B/|AD FA|GE e>d|cB BA|!
f/g/f/e/ d/c/d/B/|AD FA|GE e>f|ed d2:|!
Af f/e/f|Ag g/f/g|Af f/e/f|e/f/e/d/ BA|!
Af f/e/f|Ag gg/a/|bg ec|ed d2:|!

